!!!COM: Wacław z Szamotuł
!!!CDT: ~1524–~1560
!!!ODT:
!!!LYR:
!!!OTL: Błogosławiony człowiek
!!!PPR:
!!!PDT:
!!!PPP:
!!!ENC: dr Marcin Konik
!!!END: 2015-03-10
!!!YOO:
!!title: @{CDT}, @{OTL}, ed. @{ENC}
!!!YEM: Creative Commons CC/BY/NC/SA 4.0
!!!EED: Marcin Konik
!!!ONB: Encoded in vim by Marcin Konik
!!!CharacterEncoding: utf-8
!!!RDF**kern: l=long note in original notation
!!!RDF**kern: i=editorial accidental
!!muse2ps: z14jc180F
**kern	**kern	**kern	**kern
*part4	*part3	*part2	*part1
*staff4	*staff3	*staff2	*staff1
*clefF4	*clefF4	*clefGv2	*clefG2
*k[b-]	*k[b-]	*k[b-]	*k[b-]
*M3/4	*M3/4	*M3/4	*M3/4
=1-	=1-	=1-	=1-
2G	2G	2d	2g
4G	4G	4d	4g
=2	=2	=2	=2
2D	2F	2f	2a
4D	4F	4f	4a
=3	=3	=3	=3
4.G	2B-	2d	4.b-
8F	.	.	8a
4E-	4c	4c	4g
=4	=4	=4	=4
2D	2d	2A	2f#
4C	4e-	4c	4g
=5	=5	=5	=5
4BB-	4d	4f	4b-
2F	2c	2f	2a
=6	=6	=6	=6
4G	4B-	4d	2g
2D	2A	2d	.
.	.	.	4f#
=7	=7	=7	=7
2GG	2G	2d	2g
4r	4r	4r	4r
=8	=8	=8	=8
2G	2d	2g	2b-
4G	4d	4g	4b-
=9	=9	=9	=9
4.F	2f	2c	4.a
8G	.	.	8b-
4A	4e	4c	4cc
=10	=10	=10	=10
4B-	4d	4f	2b-
2F	2c	2f	.
.	.	.	4a
=11	=11	=11	=11
2BB-	2B-	2d	2b-
4C	4e-	4c	4g
=12	=12	=12	=12
4BB-	4d	4f	4b-
2F	2c	2f	2a
=13	=13	=13	=13
4G	4B-	4d	2g
2D	2A	2d	.
.	.	.	4f#
=14	=14	=14	=14
2GG	2G	2B-	2g
4r	4r	4r	4r
=15	=15	=15	=15
2G	2B-	2d	2g
4G	4B-	4d	4g
=16	=16	=16	=16
2G	2B-	2d	2g
4G	4B-	4d	4g
=17	=17	=17	=17
2D	2A	2d	2f
4G	4B-	4e	4g
=18	=18	=18	=18
2F	2c	2f	2a
4BB-	4d	4f	4b-
=19	=19	=19	=19
4C	4c	2e-	4a
2E-	2B-	.	2g
.	.	4e-	.
=20	=20	=20	=20
4F	4A	4c	2f
2C	2G	2c	.
.	.	.	4e
=21	=21	=21	=21
2D	2F	2A	2f
4r	4r	4r	4r
=22	=22	=22	=22
2F	2A	2f	2cc
4F	4A	4f	4cc
=23	=23	=23	=23
2F	2c	2F	2a
4E	4c	4G	4g
=24	=24	=24	=24
2D	2d	4.A	2f
.	.	8B-	.
4C	4e	4c	4e
=25	=25	=25	=25
2BB-	2f	2F	2d
4C	4e	4c	4g
=26	=26	=26	=26
4BB-	4d	4f	4b-
2F	2c	2f	4.a
.	.	.	8g
=27	=27	=27	=27
4G	4B-	4d	2g
2D	2A	2d	.
.	.	.	4f#
=28	=28	=28	=28
2.GG	2.G	2.d	2.g
==	==	==	==
*-	*-	*-	*-
